X: 170
T:Ecce Dominus veniet
N: Derived from Jos1405-Ecce_Dominus_veniet.krn
C: Josquin des Prez
%%abc-version 2.0
%%abcx-abcm2ps-target-version 5.9.1 (29 Sep 2008)
%%abc-creator hum2abc beta
%%abcx-conversion-date 2019/02/12 16:15:46
%%abc-edited-by Jesse Rodin
%%abc-edited-by Mauricio Rodriguez 2012/01/31
%%abcx-initial-encoding-date 2012/01/31/
%%humdrum-veritas 1075883460
%%humdrum-veritas-data 1159101882
%%linebreak <none>
%%barnumbers 0
L: 1/4
M: 2/1
Q: 1/2=120
V: 1 clef=treble
V: 2 clef=treble-8
V: 3 clef=treble-8
V: 4 clef=treble-8
V: 5 clef=bass
K: F
[V:1] z8 | 
[V:2] z4c4 | 
[V:3] c4A4 | 
[V:4] z8 | 
[V:5] z8 | 
[V:1] c8 | 
[V:2] A4c4 | 
[V:3] c4z2F2- | 
[V:4] z8 | 
[V:5] z8 | 
[V:1] A4c4 | 
[V:2] z2c4A2 | 
[V:3] F2F2C2c2 | 
[V:4] z8 | 
[V:5] z8 | 
[V:1] z2c4c2 | 
[V:2] c3de2f2 | 
[V:3] A3Bc2F2 | 
[V:4] z8 | 
[V:5] z8 | 
[V:1] G4c4 | 
[V:2] e4c3d | 
[V:3] c3BA4 | 
[V:4] z8 | 
[V:5] z8 | 
[V:1] z2A4G2- | 
[V:2] e2A3Bc2 | 
[V:3] G2F4E2 | 
[V:4] z8 | 
[V:5] z8 | 
[V:1] G2F4E2 | 
[V:2] F4G4 | 
[V:3] D4C4 | 
[V:4] z8 | 
[V:5] z8 | 
[V:1] F4z2F2 | 
[V:2] z2F3GAB | 
[V:3] z2c2A2c2- | 
[V:4] z8 | 
[V:5] F,4F,4 | 
[V:1] F2F2E2A2- | 
[V:2] c3de2f2- | 
[V:3] cBA2G2A2- | 
[V:4] c8 | 
[V:5] F,4C,2F,2- | 
[V:1] A2G2F4 | 
[V:2] f2e4d2 | 
[V:3] AGE2F4 | 
[V:4] A8 | 
[V:5] F,2C,2D,4 | 
[V:1] E2G3FED | 
[V:2] e8 | 
[V:3] G2E3FG2 | 
[V:4] c8- | 
[V:5] C,8 | 
[V:1] C2E4E2 | 
[V:2] z2c2c2c2 | 
[V:3] A8 | 
[V:4] c8- | 
[V:5] A,,4A,,2A,,2 | 
[V:1] E4E4 | 
[V:2] G4G4 | 
[V:3] E4E2E2 | 
[V:4] c8 | 
[V:5] C,8 | 
[V:1] D8 | 
[V:2] B6B2 | 
[V:3] G8 | 
[V:4] z8 | 
[V:5] G,,8 | 
[V:1] D6C2 | 
[V:2] F4z2F2 | 
[V:3] D8 | 
[V:4] z8 | 
[V:5] B,,6F,,2 | 
[V:1] C2c3BA2 | 
[V:2] f6ed | 
[V:3] F6C2 | 
[V:4] c8 | 
[V:5] F,,4F,,4 | 
[V:1] G4A4 | 
[V:2] e4z4 | 
[V:3] C4z2F2 | 
[V:4] c8 | 
[V:5] z2C,2A,,2F,,2 | 
[V:1] B6AG | 
[V:2] d6cB | 
[V:3] D6E2 | 
[V:4] G8 | 
[V:5] G,,8 | 
[V:1] A3Bc2A2 | 
[V:2] A2f2e2c2- | 
[V:3] F4z2A2 | 
[V:4] c8 | 
[V:5] F,,4z2F,2 | 
[V:1] B4A3B | 
[V:2] cde2c2d2 | 
[V:3] A2G2A4 | 
[V:4] z8 | 
[V:5] F,2E,2F,2D,2 | 
[V:1] c2F2G2G2 | 
[V:2] e2c3de2 | 
[V:3] z2A2B2B2 | 
[V:4] z8 | 
[V:5] C,2F,4E,2 | 
[V:1] F2A3GF2- | 
[V:2] c8- | 
[V:3] A3GFEF2 | 
[V:4] A8 | 
[V:5] F,2F,,3G,,A,,B,, | 
[V:1] F2EDE4 | 
[V:2] c8 | 
[V:3] C4z2c2 | 
[V:4] G8 | 
[V:5] C,4C,4 | 
[V:1] F8 | 
[V:2] z2A3Bc2 | 
[V:3] A2c3BAG | 
[V:4] F8 | 
[V:5] F,,4z2F,,2 | 
[V:1] z2F2B4 | 
[V:2] d2d2B2B2 | 
[V:3] F2F2G2G2 | 
[V:4] z8 | 
[V:5] B,,4G,,2G,,2 | 
[V:1] G2G2c4 | 
[V:2] c4A2A2 | 
[V:3] E4F4 | 
[V:4] z8 | 
[V:5] C,4F,,4 | 
[V:1] F4F2F2- | 
[V:2] B8 | 
[V:3] D2D4D2 | 
[V:4] F8 | 
[V:5] B,,4B,,4 | 
[V:1] F2A2A2GF | 
[V:2] c4z2c2- | 
[V:3] F4F4 | 
[V:4] A8 | 
[V:5] F,,2F,4E,D, | 
[V:1] E2C3DEF | 
[V:2] c2BAGABc | 
[V:3] G2E3FGA | 
[V:4] c8 | 
[V:5] C,4C,2B,,A,, | 
[V:1] G2F4E2 | 
[V:2] d2c2d2c2 | 
[V:3] B2A2G2G2 | 
[V:4] z8 | 
[V:5] G,,2A,,2B,,2C,2 | 
[V:1] F8 | 
[V:2] A8 | 
[V:3] F8 | 
[V:4] c8 | 
[V:5] F,,4F,,4 | 
[V:1] z2G2F2G2 | 
[V:2] z2G2A2G2 | 
[V:3] z2E2F2E2- | 
[V:4] c8 | 
[V:5] z2C,2F,,2C,2- | 
[V:1] E4F2ED | 
[V:2] c4z4 | 
[V:3] EFG2A2G2 | 
[V:4] c8 | 
[V:5] C,B,,A,,G,,F,,2C,2 | 
[V:1] C2F4E2 | 
[V:2] z2c3BAG | 
[V:3] A4G4 | 
[V:4] c8- | 
[V:5] A,,2F,,2C,4 | 
[V:1] F4z2C2 | 
[V:2] A4G2A2- | 
[V:3] F4z4 | 
[V:4] c8 | 
[V:5] F,,2F,2E,2F,2- | 
[V:1] D2E2F4 | 
[V:2] AGc4B2 | 
[V:3] z2G2G2F2 | 
[V:4] z8 | 
[V:5] F,E,D,C,D,2D,2 | 
[V:1] E3FG2A2 | 
[V:2] c3B/A/G2F2 | 
[V:3] G3FE2D2- | 
[V:4] z8 | 
[V:5] C,4z4 | 
[V:1] B8 | 
[V:2] B6B2 | 
[V:3] DEF4D2- | 
[V:4] d8 | 
[V:5] B,,4B,,4 | 
[V:1] B4B4 | 
[V:2] B2B2f4 | 
[V:3] DEFDFDFG | 
[V:4] d8 | 
[V:5] B,,4B,,4 | 
[V:1] A4z2A2- | 
[V:2] z2f2e2f2- | 
[V:3] A8 | 
[V:4] c8 | 
[V:5] F,4z2F,,2- | 
[V:1] A2GFE2F2- | 
[V:2] f2edc2B2- | 
[V:3] A4G2F2- | 
[V:4] z8 | 
[V:5] F,,G,,A,,B,,C,2D,2- | 
[V:1] F2C2D4 | 
[V:2] BAA4G2 | 
[V:3] FEE4D2 | 
[V:4] z8 | 
[V:5] D,C,A,,2B,,4 | 
[V:1] C4z4 | 
[V:2] A4A4 | 
[V:3] E2F4F2 | 
[V:4] c8 | 
[V:5] A,,2F,,4F,,2 | 
[V:1] c4c4 | 
[V:2] A4A2G2- | 
[V:3] C4C2E2- | 
[V:4] c8 | 
[V:5] A,,4A,,2C,2- | 
[V:1] c6A2 | 
[V:2] G2G2A2F2 | 
[V:3] EFGEF2D2 | 
[V:4] c8 | 
[V:5] C,2C,2F,,4 | 
[V:1] A8- | 
[V:2] E2e2e2e2 | 
[V:3] C8 | 
[V:4] c8 | 
[V:5] A,,4z2A,,2 | 
[V:1] A4z2A2 | 
[V:2] f6d2 | 
[V:3] F4z2F2 | 
[V:4] d8 | 
[V:5] D,2D,2D,4 | 
[V:1] B2B2B4 | 
[V:2] d4z2d2 | 
[V:3] G2G2G4 | 
[V:4] B8 | 
[V:5] G,,4z2G,,2 | 
[V:1] G4z2G2 | 
[V:2] e2e2e3c | 
[V:3] E4z2E2 | 
[V:4] c8 | 
[V:5] C,2C,2C,4 | 
[V:1] A2A2A4 | 
[V:2] c4z2c2 | 
[V:3] F2F2F4 | 
[V:4] A8 | 
[V:5] F,,4z2F,,2 | 
[V:1] F2F2B2B2 | 
[V:2] d2d2B2B2 | 
[V:3] D2D2G2G2 | 
[V:4] z8 | 
[V:5] B,,2B,,2G,,2G,,2 | 
[V:1] G2G2A3A | 
[V:2] c3cA4 | 
[V:3] E2E2F3F | 
[V:4] z8 | 
[V:5] C,3C,F,,4 | 
[V:1] F6ED | 
[V:2] d6cB | 
[V:3] D4z2D2 | 
[V:4] F8 | 
[V:5] B,,4B,,4 | 
[V:1] C3DE2F2- | 
[V:2] c4c4 | 
[V:3] E2E2C2F2 | 
[V:4] A8 | 
[V:5] A,,4A,,2F,,2 | 
[V:1] F2EDE4 | 
[V:2] c6c2 | 
[V:3] G4C4 | 
[V:4] G8 | 
[V:5] C,4C,4 | 
[V:1] F4F2F2 | 
[V:2] A3Bc2d2- | 
[V:3] C4z4 | 
[V:4] F8- | 
[V:5] F,,3G,,A,,2B,,2- | 
[V:1] F2F3EFG | 
[V:2] dcdc/B/A2d2 | 
[V:3] z4z2F2- | 
[V:4] F8 | 
[V:5] B,,A,,B,,C,D,C,D,E, | 
[V:1] A4G2F2- | 
[V:2] c4B2c2- | 
[V:3] FGAFG2A2- | 
[V:4] z8 | 
[V:5] F,4z2F,,2- | 
[V:1] F2EDC2F2- | 
[V:2] c2BAG2d2- | 
[V:3] A2GFE2D2- | 
[V:4] z8 | 
[V:5] F,,G,,A,,B,,C,2B,,2- | 
[V:1] F2E4D2 | 
[V:2] dcc4B2 | 
[V:3] D2E2F4 | 
[V:4] z8 | 
[V:5] B,,2C,2D,4 | 
[V:1] E4z2E2 | 
[V:2] c8 | 
[V:3] E4z2C2 | 
[V:4] G8 | 
[V:5] C,2C,3B,,A,,G,, | 
[V:1] F2A3GF2- | 
[V:2] z2c4c2 | 
[V:3] F8 | 
[V:4] A8 | 
[V:5] F,,4A,,4 | 
[V:1] F2EDE4 | 
[V:2] d4c2c2- | 
[V:3] D4z2G2 | 
[V:4] G8 | 
[V:5] B,,4C,4 | 
[V:1] F4F4- | 
[V:2] c2A3Bc2 | 
[V:3] A3Bc2A2 | 
[V:4] F8- | 
[V:5] F,,4F,,4 | 
[V:1] F4F4 | 
[V:2] d6c2 | 
[V:3] B6A2 | 
[V:4] F8 | 
[V:5] B,,6F,,2 | 
[V:1] F8 |]  
[V:2] c8 |]  
[V:3] A8 |]  
[V:4] F8 |]  
[V:5] F,,8 |]  



